nameplates/paradox.svg

<svg xmlns="http://www.w3.org/2000/svg" width="2421" height="432" fill="none"><g fill="#fff" clip-path="url(#a)"><path d="M953.876 0c20.884 3.32 41.452 25.933 44.142 46.647-5.538 55.66 8.382 129.347-.791 182.794-4.589 26.407-28.163 42.852-53.161 46.489l54.11 152.591H679.848V0zm466.574 428.521V0h217.7c49.21 0 93.19 56.293 96.51 102.624 5.07 72.896-4.11 151.642 0 225.329.8 43.169-51.57 100.568-94.29 100.568zM2223.86 2.214c4.91 16.761 11.55 33.68 18.52 49.651 2.37 5.535 4.9 13.915 9.65 17.394l25.94-67.045h142.87l-62.97 215.209 62.97 213.312h-142.87l-25.94-67.045c-1.43-1.107-3.96 3.478-4.75 4.901-9.49 17.394-17.09 43.169-23.42 62.144H2081l62.97-215.209L2081 2.214z"/><path d="M1881.33 2.846c91.29-9.33 191.6 9.804 199.82 119.385 3.8 51.707 3.8 136.779 0 188.486-4.74 64.674-55.53 115.274-120.24 120.176-90.18 6.641-186.06-12.018-193.97-120.176-3.8-51.707-3.8-136.779 0-188.486 4.59-61.669 52.53-113.06 114.39-119.385m34.49 129.663c-10.92 2.214-23.42 12.967-25.31 24.51-4.12 25.616 13.76 39.69 27.53 58.348-11.71 19.924-30.86 32.733-27.69 58.507 4.43 35.895 67.24 36.053 71.04-2.846 2.53-25.3-28.01-47.596-27.22-55.344.48-4.27 20.41-26.407 23.74-34.63 12.65-29.886-11.55-54.87-42.09-48.545M660.388 430.735H285.735l90.183-428.68L562.136 4.27l98.41 426.466zm-217.862-289.37c-12.815 12.017-11.233 29.885-3.797 44.433 3.481 6.799 23.099 26.723 22.15 31.309-9.809 13.441-25.947 28.621-27.688 46.015-3.48 32.89 35.915 48.386 60.597 27.988 26.58-22.138-.475-54.87-17.088-74.003 10.601-19.766 32.118-34.472 27.372-59.772s-43.193-33.364-61.546-15.97m956.404 289.37h-374.65l90.03-428.68 186.21 2.214zM1196.89 132.51c-10.91 2.213-23.41 12.966-25.31 24.509-4.11 25.616 13.76 39.69 27.53 58.349-11.71 19.923-30.85 32.732-27.69 58.506 4.43 35.895 67.24 36.053 71.04-2.846 2.53-25.3-28-47.596-27.21-55.344.47-4.27 20.41-26.407 23.73-34.63 12.66-29.886-11.55-54.869-42.09-48.544M166.758 274.823v153.698H0V0h224.19c29.586 0 69.456 32.732 82.43 58.349 16.454 32.573 17.087 114.957 3.481 148.796s-53.635 67.836-90.183 67.836h-53.002z"/></g><defs><clipPath id="a"><path fill="#fff" d="M0 0h2421v432H0z"/></clipPath></defs></svg>

<svg width="2421" height="432" viewBox="0 0 2421 432" fill="none" xmlns="http://www.w3.org/2000/svg">
<g clip-path="url(#clip0_22600_447)">
<path d="M953.876 0C974.76 3.32064 995.328 25.9327 998.018 46.6471C992.48 102.307 1006.4 175.994 997.227 229.441C992.638 255.848 969.064 272.293 944.066 275.93L998.176 428.521H679.848V0H953.718H953.876Z" fill="white"/>
<path d="M1420.45 428.521V0H1638.15C1687.36 0 1731.34 56.2928 1734.66 102.624C1739.73 175.52 1730.55 254.266 1734.66 327.953C1735.46 371.122 1683.09 428.521 1640.37 428.521H1420.61H1420.45Z" fill="white"/>
<path d="M2223.86 2.21375C2228.77 18.9751 2235.41 35.8946 2242.38 51.8653C2244.75 57.3997 2247.28 65.7804 2252.03 69.2591L2277.97 2.21375H2420.84L2357.87 217.423L2420.84 430.735H2277.97L2252.03 363.69C2250.6 362.583 2248.07 367.168 2247.28 368.591C2237.79 385.985 2230.19 411.76 2223.86 430.735H2081L2143.97 215.526L2081 2.21375H2223.86Z" fill="white"/>
<path d="M1881.33 2.84621C1972.62 -6.48322 2072.93 12.65 2081.15 122.231C2084.95 173.938 2084.95 259.01 2081.15 310.717C2076.41 375.391 2025.62 425.991 1960.91 430.893C1870.73 437.534 1774.85 418.875 1766.94 310.717C1763.14 259.01 1763.14 173.938 1766.94 122.231C1771.53 60.5622 1819.47 9.17125 1881.33 2.84621ZM1915.82 132.509C1904.9 134.723 1892.4 145.476 1890.51 157.019C1886.39 182.635 1904.27 196.709 1918.04 215.367C1906.33 235.291 1887.18 248.1 1890.35 273.874C1894.78 309.769 1957.59 309.927 1961.39 271.028C1963.92 245.728 1933.38 223.432 1934.17 215.684C1934.65 211.414 1954.58 189.277 1957.91 181.054C1970.56 151.168 1946.36 126.184 1915.82 132.509Z" fill="white"/>
<path d="M660.388 430.735H285.735L375.918 2.05566L562.136 4.26943L660.546 430.735H660.388ZM442.526 141.365C429.711 153.382 431.293 171.25 438.729 185.798C442.21 192.597 461.828 212.521 460.879 217.107C451.07 230.548 434.932 245.728 433.191 263.122C429.711 296.012 469.106 311.508 493.788 291.11C520.368 268.972 493.313 236.24 476.7 217.107C487.301 197.341 508.818 182.635 504.072 157.335C499.325 132.035 460.879 123.971 442.526 141.365Z" fill="white"/>
<path d="M1398.93 430.735H1024.28L1114.31 2.05566L1300.52 4.26943L1398.93 430.735ZM1196.89 132.51C1185.98 134.723 1173.48 145.476 1171.58 157.019C1167.47 182.635 1185.34 196.709 1199.11 215.368C1187.4 235.291 1168.26 248.1 1171.42 273.874C1175.85 309.769 1238.66 309.927 1242.46 271.028C1244.99 245.728 1214.46 223.432 1215.25 215.684C1215.72 211.414 1235.66 189.277 1238.98 181.054C1251.64 151.168 1227.43 126.185 1196.89 132.51Z" fill="white"/>
<path d="M166.758 274.823V428.521H0V0H224.19C253.776 0 293.646 32.7321 306.62 58.3485C323.074 90.9224 323.707 173.306 310.101 207.145C296.494 240.984 256.466 274.981 219.918 274.981H166.916L166.758 274.823Z" fill="white"/>
</g>
<defs>
<clipPath id="clip0_22600_447">
<rect width="2421" height="432" fill="white"/>
</clipPath>
</defs>
</svg>
